static/assets/template/assets/img/icons/essential/detailed/Recipt_2.svg

<svg height="137" viewBox="0 0 149 137" width="149" xmlns="http://www.w3.org/2000/svg"><g fill="none" fill-rule="evenodd" transform="translate(2 1)"><path d="m139.1 31.6h-133.5c-3.1 0-5.5-2.5-5.5-5.5v-20c0-3.1 2.5-5.5 5.5-5.5h133.5c3.1 0 5.5 2.5 5.5 5.5v20c.1 3-2.4 5.5-5.5 5.5z" fill-rule="nonzero"/><path d="m139.1 31.6h-126.7c-3.1 0-5.5-2.5-5.5-5.5v-15.3c0-3.1 2.5-5.5 5.5-5.5h126.7c3.1 0 5.5 2.5 5.5 5.5v15.3c.1 3-2.4 5.5-5.5 5.5z" fill="#87bdff" fill-rule="nonzero"/><g stroke-linecap="round" stroke-linejoin="round" stroke-width="3"><path d="m38.9.5h100.5c2.9 0 5.3 2.4 5.3 5.3v20.5c0 2.9-2.4 5.3-5.3 5.3h-22"/><path d="m24.2.5h.2"/><path d="m12.6 31.6h-7.2c-2.9 0-5.3-2.4-5.3-5.3v-20.5c0-2.9 2.4-5.3 5.3-5.3h8.6"/></g><g transform="translate(22 16)"><path d="m102 .3v118.1l-8.5-8.2-8.4 8.2-8.5-8.2-8.5 8.2-8.5-8.2-8.4 8.2-8.5-8.2-8.5 8.2-8.5-8.2-8.5 8.2-8.4-8.2-.5.4-8 7.8v-118.1z" fill-rule="nonzero"/><path d="m102 .3v118.1l-8.5-8.2-8.4 8.2-8.5-8.2-8.5 8.2-8.5-8.2-8.4 8.2-8.5-8.2-8.5 8.2-8.5-8.2-8.5 8.2-8.4-8.2-.5.4v-110.3z" fill-rule="nonzero"/><g stroke-linecap="round" stroke-linejoin="round" stroke-width="3"><path d="m102 .6v117.8l-8.5-8.2-8.4 8.2-8.5-8.2-8.5 8.2-8.5-8.2-8.4 8.2-8.5-8.2-8.5 8.2-8.5-8.2-8.5 8.2-8.4-8.2-.5.4-8 7.8v-117.8z"/><path d="m72 11.8h10.9"/><path d="m18.3 11.8h48.2"/><path d="m64 31.4h18.9"/><path d="m34.5 31.4h22.7"/><path d="m18.3 31.4h8.7"/><path d="m32.6 51h18"/><path d="m18.3 51h9.3"/><path d="m18.3 70.6h32.3"/><path d="m29.1 90.2h21.5"/><path d="m18.3 90.2h4.9"/></g><path d="m75.1 91.5v-4c-2.5 0-5.1-.7-7.1-1.6-.9-.4-1.4-1.5-1-2.5.4-1.1 1.6-1.6 2.7-1.1 1.8.8 4 1.4 6.3 1.4 4 0 6.8-2.3 6.8-5.6 0-3.1-2.2-5.1-6.4-6.8-5.8-2.3-9.4-4.9-9.4-9.8 0-4.7 3.3-8.3 8.6-9.1v-4c0-1 .8-1.8 1.8-1.8s1.8.8 1.8 1.8v3.7c2.4.1 4.2.5 5.7 1.1 1 .4 1.5 1.5 1.1 2.5-.4 1.1-1.6 1.6-2.6 1.1-1.3-.5-3-1-5.3-1-4.4 0-6 2.6-6 4.9 0 3 2.1 4.4 7 6.5 5.8 2.4 8.8 5.3 8.8 10.4 0 4.5-3.1 8.7-9 9.6v4.1c0 1-.8 1.8-1.8 1.8h-.1c-1.1.2-1.9-.6-1.9-1.6z" fill-rule="nonzero"/></g><path d="m13.5 16.6h118.4" stroke-linecap="round" stroke-linejoin="round" stroke-width="3"/></g></svg>

<?xml version="1.0" encoding="UTF-8"?>
<svg width="149px" height="137px" viewBox="0 0 149 137" version="1.1" xmlns="http://www.w3.org/2000/svg" xmlns:xlink="http://www.w3.org/1999/xlink">
    <!-- Generator: Sketch 51.2 (57519) - http://www.bohemiancoding.com/sketch -->
    <title>Recipt_2</title>
    <desc>Created with Sketch.</desc>
    <defs></defs>
    <g id="Page-1" stroke="none" stroke-width="1" fill="none" fill-rule="evenodd">
        <g id="Recipt_2" transform="translate(2.000000, 1.000000)">
            <path d="M139.1,31.6 L5.6,31.6 C2.5,31.6 0.1,29.1 0.1,26.1 L0.1,6.1 C0.1,3 2.6,0.6 5.6,0.6 L139.1,0.6 C142.2,0.6 144.6,3.1 144.6,6.1 L144.6,26.1 C144.7,29.1 142.2,31.6 139.1,31.6 Z" id="Shape" class="fill-neutral" fill-rule="nonzero"></path>
            <path d="M139.1,31.6 L12.4,31.6 C9.3,31.6 6.9,29.1 6.9,26.1 L6.9,10.8 C6.9,7.7 9.4,5.3 12.4,5.3 L139.1,5.3 C142.2,5.3 144.6,7.8 144.6,10.8 L144.6,26.1 C144.7,29.1 142.2,31.6 139.1,31.6 Z" id="Shape" fill="#87BDFF" fill-rule="nonzero"></path>
            <path d="M38.9,0.5 L139.4,0.5 C142.3,0.5 144.7,2.9 144.7,5.8 L144.7,26.3 C144.7,29.2 142.3,31.6 139.4,31.6 L117.4,31.6" id="Shape" class="stroke-primary" stroke-width="3" stroke-linecap="round" stroke-linejoin="round"></path>
            <path d="M24.2,0.5 L24.4,0.5" id="Shape" class="stroke-primary" stroke-width="3" stroke-linecap="round" stroke-linejoin="round"></path>
            <path d="M12.6,31.6 L5.4,31.6 C2.5,31.6 0.1,29.2 0.1,26.3 L0.1,5.8 C0.1,2.9 2.5,0.5 5.4,0.5 L14,0.5" id="Shape" class="stroke-primary" stroke-width="3" stroke-linecap="round" stroke-linejoin="round"></path>
            <g id="Group" transform="translate(22.000000, 16.000000)">
                <polygon id="Shape" class="fill-neutral" fill-rule="nonzero" points="102 0.3 102 118.4 93.5 110.2 85.1 118.4 76.6 110.2 68.1 118.4 59.6 110.2 51.2 118.4 42.7 110.2 34.2 118.4 25.7 110.2 17.2 118.4 8.8 110.2 8.3 110.6 0.3 118.4 0.3 0.3"></polygon>
                <polygon id="Shape" class="fill-primary-100" fill-rule="nonzero" points="102 0.3 102 118.4 93.5 110.2 85.1 118.4 76.6 110.2 68.1 118.4 59.6 110.2 51.2 118.4 42.7 110.2 34.2 118.4 25.7 110.2 17.2 118.4 8.8 110.2 8.3 110.6 8.3 0.3"></polygon>
                <polygon id="Shape" class="stroke-primary" stroke-width="3" stroke-linecap="round" stroke-linejoin="round" points="102 0.6 102 118.4 93.5 110.2 85.1 118.4 76.6 110.2 68.1 118.4 59.6 110.2 51.2 118.4 42.7 110.2 34.2 118.4 25.7 110.2 17.2 118.4 8.8 110.2 8.3 110.6 0.3 118.4 0.3 0.6"></polygon>
                <path d="M72,11.8 L82.9,11.8" id="Shape" class="stroke-primary" stroke-width="3" stroke-linecap="round" stroke-linejoin="round"></path>
                <path d="M18.3,11.8 L66.5,11.8" id="Shape" class="stroke-primary" stroke-width="3" stroke-linecap="round" stroke-linejoin="round"></path>
                <path d="M64,31.4 L82.9,31.4" id="Shape" class="stroke-primary" stroke-width="3" stroke-linecap="round" stroke-linejoin="round"></path>
                <path d="M34.5,31.4 L57.2,31.4" id="Shape" class="stroke-primary" stroke-width="3" stroke-linecap="round" stroke-linejoin="round"></path>
                <path d="M18.3,31.4 L27,31.4" id="Shape" class="stroke-primary" stroke-width="3" stroke-linecap="round" stroke-linejoin="round"></path>
                <path d="M32.6,51 L50.6,51" id="Shape" class="stroke-primary" stroke-width="3" stroke-linecap="round" stroke-linejoin="round"></path>
                <path d="M18.3,51 L27.6,51" id="Shape" class="stroke-primary" stroke-width="3" stroke-linecap="round" stroke-linejoin="round"></path>
                <path d="M18.3,70.6 L50.6,70.6" id="Shape" class="stroke-primary" stroke-width="3" stroke-linecap="round" stroke-linejoin="round"></path>
                <path d="M29.1,90.2 L50.6,90.2" id="Shape" class="stroke-primary" stroke-width="3" stroke-linecap="round" stroke-linejoin="round"></path>
                <path d="M18.3,90.2 L23.2,90.2" id="Shape" class="stroke-primary" stroke-width="3" stroke-linecap="round" stroke-linejoin="round"></path>
                <path d="M75.1,91.5 L75.1,87.5 C72.6,87.5 70,86.8 68,85.9 C67.1,85.5 66.6,84.4 67,83.4 C67.4,82.3 68.6,81.8 69.7,82.3 C71.5,83.1 73.7,83.7 76,83.7 C80,83.7 82.8,81.4 82.8,78.1 C82.8,75 80.6,73 76.4,71.3 C70.6,69 67,66.4 67,61.5 C67,56.8 70.3,53.2 75.6,52.4 L75.6,48.4 C75.6,47.4 76.4,46.6 77.4,46.6 C78.4,46.6 79.2,47.4 79.2,48.4 L79.2,52.1 C81.6,52.2 83.4,52.6 84.9,53.2 C85.9,53.6 86.4,54.7 86,55.7 C85.6,56.8 84.4,57.3 83.4,56.8 C82.1,56.3 80.4,55.8 78.1,55.8 C73.7,55.8 72.1,58.4 72.1,60.7 C72.1,63.7 74.2,65.1 79.1,67.2 C84.9,69.6 87.9,72.5 87.9,77.6 C87.9,82.1 84.8,86.3 78.9,87.2 L78.9,91.3 C78.9,92.3 78.1,93.1 77.1,93.1 L77,93.1 C75.9,93.3 75.1,92.5 75.1,91.5 Z" id="Shape" class="fill-primary" fill-rule="nonzero"></path>
            </g>
            <path d="M13.5,16.6 L131.9,16.6" id="Shape" class="stroke-primary" stroke-width="3" stroke-linecap="round" stroke-linejoin="round"></path>
        </g>
    </g>
</svg>
